X:1
T:Jacky Layton with variations
T:Jacky Layton with variations
L:1/8
M:4/4
K:G
V:1 treble 
V:1
"^THEME" G/A/B/c/ dg e/d/c/B/ Bg | e/d/c/B/ Bg d2 B>A | G/A/B/c/ d/e/f/g/ dBBg | %3
 aAAB c>e d/c/B/A/ | G/A/B/c/ dg e/d/c/B/ Bg | e/d/c/B/ Bg d2 B>d | %6
 c/d/e/c/ d/e/f/d/ e/f/g/d/ B/c/d/B/ |O eAAB c>e d/c/B/A/ |]"^VAR 1" G/A/B/c/ d>B e>c dB | %9
 G/A/B/c/ e/d/c/B/ d2 B>A | G/A/B/c/ d/B/d/B/ e/c/e/c/ d/B/d/B/ | eAAB c>e d/c/B/A/ | %12
 G/A/B/c/ d>B e>c dB | G/A/B/c/ d/B/g/e/ d2 B>d | c/d/e/c/ d/e/f/d/ e/f/g/d/ B/c/d/B/ | %15
 eAAB c>e d/c/B/A/ |]"^VAR 2" gd B/c/d/B/ Gd B/c/d/B/ | gd B/c/d/B/ d2 B2 | %18
 gd B/c/d/B/ Gd B/c/d/B/ | eAAB c>e d/c/B/A/ | gd B/c/d/B/ Gd B/c/d/B/ | gd B/c/d/B/ d2 Bd | %22
 c/d/e/c/ d/e/f/d/ e/f/g/d/ B/c/d/B/ | eAAB c>e d/c/B/A/ |] %24
"^VAR 3" d/e/d/c/ B/c/d/B/ d/e/d/c/ B/c/d/B/ | d/e/d/c/ B/c/d/B/ d2 B2 | %26
 d/e/d/c/ B/c/d/B/ d/e/d/c/ B/c/d/B/ | eAAB c>e d/c/B/A/ | d/e/d/c/ B/c/d/B/ d/e/d/c/ B/c/d/B/ | %29
 G/A/B/c/ d/B/g/e/ d2 B>d | c/d/e/c/ d/e/f/d/ e/f/g/d/ B/c/d/B/ | eAAB c>e d/c/B/A/ |] %32
"^VAR 4" .G.B.A.c .B.d.c.e | d/e/f/g/ G/A/B/c/ d2 B>A | .G.B.A.c .B.d.c.e | eAAB c>e d/c/B/A/ | %36
 G/A/B/G/ A/B/c/A/ B/c/d/B/ c/d/e/c/ | d/e/f/d/ e/f/g/e/ d2 B2 | %38
 c/d/e/c/ d/e/f/d/ e/f/g/d/ B/c/d/B/ | eAAB c>e d/c/B/A/ |] %40
"^VAR 5" g/f/e/d/ B/c/d/B/ g/f/e/d/ B/c/d/B/ | g/f/e/d/ B/c/d/B/ d2 B2 | %42
 g/f/e/d/ B/c/d/B/ g/f/e/d/ B/c/d/B/ | eAAB c>e d/c/B/A/ | g/f/e/d/ B/c/d/B/ g/f/e/d/ B/c/d/B/ | %45
 G/A/B/c/ d/B/g/e/ d2 B>d | c/d/e/c/ d/e/f/d/ e/f/g/d/ B/c/d/B/ | eAAB c>e d/c/B/A/ |] %48
"^VAR 6" g2 g2 gg B/c/d/B/ | g>f a/g/f/e/ d2 B2 | g/f/e/g/ f/e/d/f/ e/d/c/e/ d/c/B/d/ | %51
 eAAB c>e d/c/B/A/ | g2 g2 gg B/c/d/B/ | g>f a/g/f/e/ d2 B2 | c/d/e/c/ d/e/f/d/ e/f/g/d/ B/c/d/B/ | %55
 eAAB c>e d/c/B/A/ |]"^VAR 7" G/A/B/c/ d/B/G/B/ g/B/G/B/ d/B/G/B/ | G/A/B/c/ d/B/g/e/ d2 B2 | %58
 G/A/B/c/ d/B/G/B/ g/B/G/B/ d/B/G/B/ | eAAB c>e d/c/B/A/ | G/A/B/c/ d/B/G/B/ g/B/G/B/ d/B/G/B/ | %61
 G/A/B/c/ d/B/g/e/ d2 B2 | c/d/e/c/ d/e/f/d/ e/f/g/d/ B/c/d/B/ | eAAB c>e d/c/B/A/ |] %64
"^VAR 8" G/A/B/c/ d/g/f/g/ G/g/f/g/ B/g/f/g/ | G/A/B/c/ d/g/f/g/ d2 B>A | %66
 G/A/B/c/ d/g/f/g/ G/g/f/g/ B/g/f/g/ | a>AAB c>e d/c/B/A/ | G/A/B/c/ d/g/f/g/ G/g/f/g/ B/g/f/g/ | %69
 G/A/B/c/ e/d/c/B/ g>e dB | c/d/e/c/ d/e/f/d/ e/f/g/d/ B/c/d/B/ | eAAB c>e d/c/B/A/!D.C.! |] %72

